X:1
T: Concerto Fminor n5
C:J.S.Bach
L:1/4
Q:1/4=60
M:4/4
K:Bmaj
V:1
C/2D/2 E/2F/2 G/2A/2 G/2A/2 | G4| F2 E2| D4-| D4| C/2D/2 E/2F/2 G/2A/2 G/2A/2 | G4| F2 E2| D4-| D4|C/2D/2 E/2F/2 G/2A/2 G/2A/2 | G4| F2 E2| D4-| D4|C/2D/2 E/2F/2 G/2A/2 G/2A/2 | G4| F2 E2| D4-| D4|C/2D/2 E/2F/2 G/2A/2 G/2A/2 | G4| F2 E2| D4-| D4|C/2D/2 E/2F/2 G/2A/2 G/2A/2 | G4| F2 E2| D4-| D4|C/2D/2 E/2F/2 G/2A/2 G/2A/2 | G4| F2 E2| D4-| D4|